X:5800
T:Sbrando del Roero
O:england
C:La Ciapa Rusa: Retanavota 4b
N:
M:6/8
L:1/8
K:G
D DED|B3 A3|G2D DED|F2D DED|G2D DED|\
B3 A3|G2D DED|FED DEF|G3:|
|:Bcd|B2B Bcd|d2c ABc|A2A ABc|e2d  DED|\
B3 A3|G2D DED|FED DEF|G3:|
|:G2B|d2d d2d|g2d d2d|fed cde|d2B G2B|\
d2d d2d|g2d d2d|fed cBA|G3:|


